!!!COM: Haydn, Franz Joseph
!!!OPR: String Quartet in C Major
!!!ONM: Opus 33, No. 3
!!!OTL: Affettuoso 
!!!OMV: 3
!!!SCT: H III:39
!!!SCA: Thematisch-bibliographisches Werkevererzeichnis (A. van Hoboken)
!!!YOR: Richault Edition, volume 7
!!!EED: Frances Bennion
!!!ENC: Frances Bennion
!!!CDT: 1732/3/31/-1809/5/31/
!!!OCY: Österreich
!!!YEC: Copyright (c) 1994, 2000 Center for Computer Assisted Research in the Humanities
!!!YEM: Rights to all derivative editions reserved.
!!!YEM: Refer to licensing agreement for further details.
!!!YEN: United States of America
**kern	**kern	**kern	**kern
*k[b-]	*k[b-]	*k[b-]	*k[b-]
*F:	*F:	*F:	*F:
*clefF	*clefF	*clefC3	*clefF4
*M3/4	*M3/4	*M3/4	*M3/4
*tb48	*tb48	*tb48	*tb48
=1	=1	=1	=1
8.cc	4a	4c	4F
32dd	.	.	.
32cc	.	.	.
4b-	4g	4e	4G
4a	4f	4f	4A
=2	=2	=2	=2
8.g	4e	[4c	4B-
16e	.	.	.
8f	8f	8c]	8A
8g	8c	8e	8E
8a	8c	8f	8F
8b-	8f	8f	8D
=3	=3	=3	=3
8.cc	2f	4f	4AA
32b-	.	.	.
32cc	.	.	.
8dd	.	2d	2BB-
8d	.	.	.
8b-	8d	.	.
8g	8B-	.	.
=4	=4	=4	=4
4f	4A	4.c	2C
8e	8G	.	.
4.r	4.r	8c	.
.	.	8c	4r
.	.	8c	.
=5	=5	=5	=5
8.b-	4g	4E	2c
32cc	.	.	.
32b-	.	.	.
4a	4f	4.c	.
4g	4e	.	4B-
.	.	8d-	.
=6	=6	=6	=6
8.cc	[4f	4.c	[4A
32dd	.	.	.
32ee	.	.	.
8ff	8f]	.	8A]
8gg	8b-	8c	8E
8aa	8a	8c	8F
8ff	8cc	8f	8AA
=7	=7	=7	=7
8dd	8b-	8.f	4BB-
16cc	16a	.	.
16b-	16g	16d	.
8a	8f	8c	4C
8cc	8A	8c	.
8e	8G	8B-	4C
8g	8B-	8E	.
=8	=8	=8	=8
4g	4B-	4E	4.FF
8f	8A	8F	.
4.r	4.r	4.r	8F
.	.	.	8A
.	.	.	8c
=9	=9	=9	=9
8.cc	4a	2f	4f
32dd	.	.	.
32cc	.	.	.
4ff	4b	.	4d
4ee	4cc	4g	4c
=10	=10	=10	=10
8.dd	4a	2f	4F
32ee	.	.	.
32dd	.	.	.
4aa	4b	.	4D
4gg	8cc	4e	4E
.	8ee	.	.
=11	=11	=11	=11
2ff	4ee	4c	4A
.	4dd	8d	4B
.	.	8g	.
4ee	4cc	4g	4c
=12	=12	=12	=12
4ee-	4cc	4a-	4A-
4aa-	4.dd-	2a-	2F
8ff	.	.	.
8dd	8f	.	.
=13	=13	=13	=13
2b	4e-	2g	2G
.	8d	.	.
.	8g	.	.
4r	8g	4r	4r
.	8g	.	.
=14	=14	=14	=14
8dd	2.g	8f	2.r
16dd	.	8r	.
16b	.	.	.
16cc	.	8e	.
16gg	.	.	.
8gg	.	8r	.
8dd	.	8f	.
16dd	.	8r	.
16b	.	.	.
=15	=15	=15	=15
16cc	2.g	8e	2.r
16gg	.	.	.
8gg	.	8r	.
8dd	.	8f	.
16dd	.	8r	.
16b	.	.	.
16cc	.	8e	.
16gg	.	.	.
8gg	.	8r	.
=16	=16	=16	=16
16aa	4a	4c	4F
16bb	.	.	.
8ccc	.	.	.
8aa	8r	4r	4r
8ff	8a	.	.
8dd	8f	4G	4G
8b	8d	.	.
=17	=17	=17	=17
4cc	4e	8c	4C
.	.	8g	.
4r	4r	8g	4r
.	.	8g	.
8ee	4b-	8g	4c#
16ee	.	8g	.
16a	.	.	.
=18	=18	=18	=18
16a	8a	8f	8d
16aa	.	.	.
8aa	8r	8f	8r
8dd	4a-	8f	4B
16dd	.	8f	.
16g	.	.	.
16g	8g	8e	8c
16gg	.	.	.
8gg	8r	8e	8r
=19	=19	=19	=19
32c	4g 4cc	4c	4E
16.e	.	.	.
32e	.	.	.
16.g	.	.	.
32g	2r	2r	2r
16.cc	.	.	.
32cc	.	.	.
16.ee	.	.	.
32ee	.	.	.
16.gg	.	.	.
32gg	.	.	.
16.ccc	.	.	.
=20	=20	=20	=20
4.gg#	4.g#	8r	8r
.	.	8c	8F
.	.	8c	8F
8aa	8a	8c	8F
8ff	8f	8d	8F
8dd	8f	8d	8F
=21	=21	=21	=21
2cc	8e	8e	8G
.	8e	8e	8G
.	8e	8g	8G
.	8e	8g	8G
8.dd	8f	8B	8G
.	8f	8B	8G
16cc	.	.	.
=22	=22	=22	=22
32c	4G 4e	4c	4c 4E
16.e	.	.	.
32e	.	.	.
16.g	.	.	.
32g	2r	2r	2r
16.cc	.	.	.
32cc	.	.	.
16.ee	.	.	.
32ee	.	.	.
16.gg	.	.	.
32gg	.	.	.
16.ccc	.	.	.
=23	=23	=23	=23
2aa-	2a-	8r	8r
.	.	8c	8F
.	.	8c	8F
.	.	8c	8F
4gg	4b-	8e 8c	8G
.	.	8e 8c	8G
=24	=24	=24	=24
4ff#	4cc	8e- 8c	8A
.	.	8e- 8c	8A
4ff	4dd	8d 8G	8B
.	.	8G 8d	8B
4ee	4g	8c	8c
.	.	8c	8c
=25	=25	=25	=25
[2dd	[2a	[2d	[2F
8dd]	8a]	8d]	8F]
8cc#	8b-	8e	8G
=26	=26	=26	=26
8dd	8a	8d	8F
8r	8r	8r	8r
8ff	8a	8d	8D
8r	8r	8r	8r
8.b	4f	4d	4G
16cc	.	.	.
=27	=27	=27	=27
4cc	8e	8c	4C
.	8g	8e	.
4r	8e	8c	4r
.	8e	8c	.
8.b	8f	8d	4G
.	8f	8d	.
16cc	.	.	.
=28	=28	=28	=28
4cc	8e	8c	4C
.	8g	8e	.
4r	8e	8c	4r
.	8e	8c	.
8.b	8f	8d	4G
.	8f	8d	.
16cc	.	.	.
=29	=29	=29	=29
4cc	4e	4c	8C
.	.	.	8c
2r	8r	8r	8c
.	8g	8e	8B-
.	8a	8f	8A
.	8b-	8e	8G
=30	=30	=30	=30
8.cc	4a	4f	4F
32dd	.	.	.
32cc	.	.	.
4b-	4g	8g	4G
.	.	8e	.
4a	4f	4f	4A
=31	=31	=31	=31
8.g	4e	[4c	4B-
16e	.	.	.
8f	8f	8c]	8A
24r	8c	8e	8E
24f#	.	.	.
24g	.	.	.
24r	8c	8f	8F
24g#	.	.	.
24a	.	.	.
24r	8f	8f	8D
24a	.	.	.
24b-	.	.	.
=32	=32	=32	=32
24r	2f	4f	4AA
24b	.	.	.
24cc	.	.	.
24dd	.	.	.
24ee	.	.	.
24ff	.	.	.
8cc#	.	4B-	4BB-
24dd	.	.	.
24ee	.	.	.
24ff#	.	.	.
24gg	4r	4r	4r
24aa	.	.	.
24bb	.	.	.
24ccc	.	.	.
24ccc#	.	.	.
24ddd	.	.	.
=33	=33	=33	=33
8.ff	4a	4c	4.C
32gg	.	.	.
32ff	.	.	.
8ee	8g	2r	.
4.r	4.r	.	8c
.	.	.	8c
.	.	.	8c
=34	=34	=34	=34
8.b-	4g	8g	2c
.	.	8e	.
32cc	.	.	.
32b-	.	.	.
4a	4f	4.c	.
4g	4e	.	4B-
.	.	8d-	.
=35	=35	=35	=35
8.cc	4.f	4.c	4.A
32dd	.	.	.
32ee	.	.	.
8ff	.	.	.
32ee	8B-	8e	8G
32gg	.	.	.
32bb-	.	.	.
32gg	.	.	.
32ff	8c	8f	8A
32aa	.	.	.
32ccc	.	.	.
32aa	.	.	.
32ee	8f	8c	8A
32gg	.	.	.
32ff	.	.	.
32aa	.	.	.
=36	=36	=36	=36
32cc#	4..f	4d	4B-
32ee	.	.	.
32dd	.	.	.
32ff	.	.	.
16dd	.	.	.
32cc	.	.	.
32b-	.	.	.
32a	.	4c	4c
32b-	.	.	.
32a	.	.	.
32b-	.	.	.
16b	.	.	.
16cc	16A	.	.
16e	16G	8.r	4C
16e	16G	.	.
16f	16A	.	.
16g	16B-	16E	.
=37	=37	=37	=37
4g	4B-	4E	4.FF
8f	8A	8F	.
4.r	4.r	4.r	8F
.	.	.	8A
.	.	.	8c
=38	=38	=38	=38
8.cc	4a	2f	4f
32dd	.	.	.
32cc	.	.	.
4ff	4b	.	4d
4ee	4cc	4g	4c
=39	=39	=39	=39
32dd	4a	4f	4F
32cc#	.	.	.
32ee	.	.	.
32dd	.	.	.
32ff	.	.	.
32ee	.	.	.
32gg	.	.	.
32ff	.	.	.
4aa	4b	4f	4D
16gg	8cc	4e	4E
16bb	.	.	.
24ccc	8ee	.	.
24gg	.	.	.
24ee	.	.	.
=40	=40	=40	=40
4ff	4ee	4c	4A
32ff	4dd	8d	4B
32bb	.	.	.
32ddd	.	.	.
32bb	.	.	.
32fff	.	8g	.
32ddd	.	.	.
32bb	.	.	.
32ff	.	.	.
4ee	4cc	4g	4c
=41	=41	=41	=41
4ee-	4cc	4a-	4A-
4aa- 4a-	4.dd-	2a-	2F
8ff	.	.	.
8dd	8f	.	.
=42	=42	=42	=42
4cc	4e-	2g	2G
4b	8d	.	.
.	8g	.	.
4r	8g	4r	4r
.	8g	.	.
=43	=43	=43	=43
8dd	8g	8f	2.r
16dd	8g	8r	.
16b	.	.	.
16cc	8g	8e	.
16gg	.	.	.
8gg	8g	8r	.
24cc#	8g	8f	.
24dd	.	.	.
24ee	.	.	.
24ff	8g	8r	.
24dd	.	.	.
24b	.	.	.
=44	=44	=44	=44
24b	8g	8e	2.r
24cc	.	.	.
24ee	.	.	.
24ff#	8g	8r	.
24aa	.	.	.
24gg	.	.	.
32dd	8g	8f	.
32ff	.	.	.
32ee	.	.	.
32gg	.	.	.
32ff	8g	8r	.
32dd	.	.	.
32cc	.	.	.
32b	.	.	.
32cc	8g	8e	.
32ee	.	.	.
32dd	.	.	.
32ff	.	.	.
32ee	8g	8r	.
32gg	.	.	.
32ee	.	.	.
32cc	.	.	.
=45	=45	=45	=45
32a	4c	4f	4F
32aa	.	.	.
32b	.	.	.
32bb	.	.	.
32cc	.	.	.
32ccc	.	.	.
32cc	.	.	.
32ccc	.	.	.
32a	8r	4r	4r
32aa	.	.	.
32a	.	.	.
32aa	.	.	.
32f	8a	.	.
32ff	.	.	.
32f	.	.	.
32ff	.	.	.
8d 8dd	8f	4g	4G
8b	8d	.	.
=46	=46	=46	=46
4cc	4e	8c	4C
.	.	8g	.
4r	4r	8g	4r
.	.	8g	.
8ee	8a	8g	8c#
16ee	8r	8r	8r
16a	.	.	.
=47	=47	=47	=47
16a	8a	8f	8d
16aa	.	.	.
8aa	8r	8r	8r
24dd	8g	8g	8B
24cc#	.	.	.
24cc	.	.	.
24b	8r	8r	8r
24b-	.	.	.
24a	.	.	.
8g	8g	8e	8c
8gg	8r	8r	8r
=48	=48	=48	=48
32c	4cc 4g	4G	4c
16.e	.	.	.
32e	.	.	.
16.g	.	.	.
32g	2r	2r	2r
16.cc	.	.	.
32cc	.	.	.
16.ee	.	.	.
32ee	.	.	.
16.gg	.	.	.
32gg	.	.	.
16.ccc	.	.	.
=49	=49	=49	=49
4.gg#	4.g#	8r	8r
.	.	8c	8F
.	.	8c	8F
8aa	8a	8c	8F
8ff	8f	8d	8F
8dd	8f	8d	8F
=50	=50	=50	=50
2cc	8e	8e	8G
.	8e	8e	8G
.	8e	8g	8G
.	8e	8g	8G
8.dd	8f	8B	8G
.	8f	8B	8G
16cc	.	.	.
=51	=51	=51	=51
24c	4G 4e	4c	4c
24e	.	.	.
24d	.	.	.
24f	.	.	.
24e	.	.	.
24a	.	.	.
24g	2r	2r	2r
24cc	.	.	.
24b	.	.	.
24dd	.	.	.
24cc	.	.	.
24ee	.	.	.
24dd	.	.	.
24ff	.	.	.
24ee	.	.	.
24aa-	.	.	.
24gg	.	.	.
24ccc	.	.	.
=52	=52	=52	=52
2aa-	2a-	8r	8r
.	.	8c	8F
.	.	8c	8F
.	.	8c	8F
4gg	4b-	8c 8e	8G
.	.	8e 8c	8G
=53	=53	=53	=53
4ff#	4cc	8c 8e-	8A
.	.	8e- 8c	8A
4ff	4dd	8d 8G	8B
.	.	8G 8d	8B
4ee	4g	8c	8c
.	.	8c	8c
=54	=54	=54	=54
[4dd	[2a	2d	[2F
32dd]	.	.	.
32cc#	.	.	.
32dd	.	.	.
32cc#	.	.	.
32dd	.	.	.
32cc#	.	.	.
32dd	.	.	.
32cc#	.	.	.
8dd	8a]	8d	8F]
8cc#	8b-	8e	8G
=55	=55	=55	=55
8dd	8a	8d	8F
8r	8r	8r	8r
8ff	8a	8d	8D
8r	8r	8r	8r
8.b	8.f	4d	4G
16cc	16e	.	.
=56	=56	=56	=56
4cc	8e	8c	4C
.	8g	8e	.
4r	8e	8c	4r
.	8e	8c	.
8.b	8f	8d	4G
.	8f	8d	.
16cc	.	.	.
=57	=57	=57	=57
4cc	8e	8c	4C
.	8g	8e	.
4r	8e	8c	4r
.	8e	8c	.
8.b	8f	8d	4G
.	8f	8d	.
16cc	.	.	.
=58	=58	=58	=58
4cc	8e-	8c	4C
.	8e-	8c	.
4r	8e-	8c	2r
.	8e-	8c	.
8.cc	8e-	8c	.
.	8e-	8c	.
16dd-	.	.	.
=59	=59	=59	=59
[4dd-	16B-	8G	8EE-
.	16d-	.	.
.	16B-	8G	8EE-
.	16d-	.	.
16dd-]	16B-	8G	8EE-
16cc	16d-	.	.
16b-	16B-	8G	8EE-
16a-	16d-	.	.
16g	16B-	8G	8EE-
16f	16d-	.	.
16e-	16B-	8G	8EE-
16d-	16d-	.	.
=60	=60	=60	=60
4.c	16B-	8G	8EE
.	16c	.	.
.	16B-	8G	8EE
.	16c	.	.
.	16B-	8G	8EE
.	16c	.	.
8cc	16B-	8G	8EE
.	16c	.	.
8cc	16B-	8G	8EE
.	16c	.	.
8cc	16B-	8G	8EE
.	16c	.	.
=61	=61	=61	=61
[4ee-	16c	8A	8FF
.	16e-	.	.
.	16c	8A	8FF
.	16e-	.	.
16ee-]	16c	8A	8FF
16dd	16e-	.	.
16cc	16c	8A	8FF
16b-	16e-	.	.
16a	16c	8A	8FF
16g	16e-	.	.
16f	16c	8A	8FF
16e-	16e-	.	.
=62	=62	=62	=62
4.d	16c	8A	8FF#
.	16d	.	.
.	16c	8A	8FF#
.	16d	.	.
.	16c	8A	8FF#
.	16d	.	.
8dd	16c	8A	8FF#
.	16d	.	.
8dd	16c	8A	8FF#
.	16d	.	.
8dd	16c	8A	8FF#
.	16d	.	.
=63	=63	=63	=63
4.bb-	8B-	8G	8GG
.	4dd	8G	8GG
.	.	8G	8GG
8aa	8cc	8A	8AA
8gg	8b-	8B-	8BB-
8ff	8a	8B	8BB
=64	=64	=64	=64
4ff	4a	4.c	4.C
4ee	8g	.	.
.	8g	8e	8B-
4r	8a	8f	8A
.	8b-	8e	8G
=65	=65	=65	=65
8.cc	4a	4c	4F
32dd	.	.	.
32cc	.	.	.
4b-	4g	4e	4G
4a	4f	4f	4A
=66	=66	=66	=66
8.g	4e	[4c	4B-
16e	.	.	.
8f	8f	8c]	8A
8g	8c	8e	8E
8a	8c	8f	8F
8b-	8f	8f	8D
=67	=67	=67	=67
8.cc	2f	4f	4AA
32b-	.	.	.
32cc	.	.	.
8dd	.	2d	2BB-
8d	.	.	.
8b-	8d	.	.
8g	8B-	.	.
=68	=68	=68	=68
4f	4A	4.c	2C
8e	8G	.	.
4.r	4.r	8c	.
.	.	8c	4r
.	.	8c	.
=69	=69	=69	=69
8.b-	4g	4E	2c
32cc	.	.	.
32b-	.	.	.
4a	4f	4.c	.
4g	4e	.	4B-
.	.	8d-	.
=70	=70	=70	=70
8.cc	4f 4c	4c	4A
32dd	.	.	.
32ee	.	.	.
16ff	2r	2r	2r
16gg	.	.	.
16aa	.	.	.
16bb-	.	.	.
16ccc	.	.	.
16ddd	.	.	.
16eee	.	.	.
16fff	.	.	.
=71	=71	=71	=71
8r	8d	8B-	8BB-
8d	8r	8r	8r
8r	8b-	8d	8GG
8b-	8r	8r	8r
8r	8e	8B-	8C
8e	8r	8r	8r
=72	=72	=72	=72
12r	8f	8A	8D
12e	.	.	.
.	8r	8r	8r
12f	.	.	.
12r	8dd	8d	8BB-
12cc#	.	.	.
.	8r	8r	8r
12dd	.	.	.
12r	8g	8c	8E
12f#	.	.	.
.	8r	8r	8r
12g	.	.	.
=73	=73	=73	=73
24r	8a	8c	8F
24g#	.	.	.
24a	.	.	.
24b-	8r	8r	8r
24a	.	.	.
24cc	.	.	.
24r	[4b	2F	2D
24ee	.	.	.
24ff	.	.	.
24gg	.	.	.
24ff	.	.	.
24aa	.	.	.
24gg	8b]	.	.
24ff	.	.	.
24ee	.	.	.
24dd	16dd	.	.
24cc	.	.	.
.	16f	.	.
24b	.	.	.
=74	=74	=74	=74
4b	4f	4G	2C
8cc	8e	2r	.
4.r	8cc	.	.
.	8cc	.	4r
.	8cc	.	.
=75	=75	=75	=75
8gg	8cc	8b-	2.r
16gg	8cc	8r	.
16ee	.	.	.
16ff	8cc	8a	.
16ccc	.	.	.
8ccc	8cc	8r	.
8gg	8cc	8b-	.
16gg	8cc	8r	.
16ee	.	.	.
=76	=76	=76	=76
32ff	8cc	8a	4r
32gg	.	.	.
32aa	.	.	.
32bb-	.	.	.
16ccc	8cc	8r	.
16ccc	.	.	.
16ccc	8cc	8B-	8B-
16bb-	.	.	.
16gg	8cc	8r	8r
16ee	.	.	.
32ff	8cc	8A	8A
32gg	.	.	.
32aa	.	.	.
32bb-	.	.	.
32ccc	8cc	8r	8r
32ddd	.	.	.
32eee	.	.	.
32fff	.	.	.
=77	=77	=77	=77
16eee	4f	4d	4B-
16ddd	.	.	.
16ccc#	.	.	.
16ddd	.	.	.
16ccc	4r	4r	4r
16bb-	.	.	.
16aa	.	.	.
16bb-	.	.	.
16bb-	4b-	4g	4c
16gg	.	.	.
16ff	.	.	.
16ee	.	.	.
=78	=78	=78	=78
4ff	4a	8f	4F
.	.	8c	.
4r	4r	8c	4r
.	.	8c	.
8a	8d	8c	8F#
16a	8r	8r	8r
16d	.	.	.
=79	=79	=79	=79
16d	8d	8B-	8G
16dd	.	.	.
8dd	8r	8r	8r
24g	8c	8B-	8E
24f#	.	.	.
24f	.	.	.
24e	8r	8r	8r
24e-	.	.	.
24d	.	.	.
8c	8c	8A	8F
8cc	8r	8r	8r
=80	=80	=80	=80
32A	4A 4f	4A	4FF
16.c	.	.	.
32c	.	.	.
16.f	.	.	.
32f	2r	2r	2r
16.a	.	.	.
32a	.	.	.
16.cc	.	.	.
32cc	.	.	.
16.ff	.	.	.
32ff	.	.	.
16.aa	.	.	.
=81	=81	=81	=81
4.cc#	4.c#	8r	8r
.	.	8F	8BB-
.	.	8F	8BB-
8dd	8d	8F	8BB-
8b-	8B-	8G	8BB-
8g	8B-	8G	8BB-
=82	=82	=82	=82
2f	8A	8A	8C
.	8A	8A	8C
.	8A	8c	8C
.	8A	8c	8C
8.g	8B-	8E	8C
.	8B-	8E	8C
16f	.	.	.
=83	=83	=83	=83
24A	4f 4A	4F	4F
24c	.	.	.
24B-	.	.	.
24d	.	.	.
24c	.	.	.
24f	.	.	.
24e	2r	2r	2r
24g	.	.	.
24f	.	.	.
24a	.	.	.
24g	.	.	.
24b-	.	.	.
24a	.	.	.
24cc	.	.	.
24b-	.	.	.
24dd	.	.	.
24cc	.	.	.
24ff	.	.	.
=84	=84	=84	=84
2dd-	2d-	8r	8r
.	.	8f	8BB-
.	.	8f	8BB-
.	.	8f	8BB-
4cc	4g-	8e-	8E-
.	.	8e-	8E-
=85	=85	=85	=85
4b	4f	8d	8D
.	.	8d	8D
4b-	4g	8c	8E
.	.	8c	8E
4a	4c	8c	8F
.	.	8c	8F
=86	=86	=86	=86
[2g	[2d	[2B-	[2B-
8g]	8d]	8B-]	8B-]
8f#	8e-	8A	8c
=87	=87	=87	=87
8g	8d	8B-	8B-
8r	8r	8r	8r
8b-	8d	8G	8G
8r	8r	8r	8r
8.e	8.B-	8c	8c
.	.	8r	8r
16f	16A	.	.
=88	=88	=88	=88
8f	8A	8F	4F
4.r	8c	8A	.
.	8A	8F	4r
.	8A	8F	.
8.e	8.B-	8.G	4C
16f	16A	16A	.
=89	=89	=89	=89
8f	8A	8F	4F
4.r	8c	8A	.
.	8A	8F	4r
.	8A	8F	.
8.e	8.B-	8.G	4C
16f	16A	16A	.
=90	=90	=90	=90
8f	8A	8A	8FF
4.r	4.r	4.r	4.r
8f	8A	8F	8FF
8r	8r	8r	8r
=91	=91	=91	=91
8f	8A	8F	8FF
2r	2r	2r	2r
8r	8r	8r	8r
==	==	==	==
*-	*-	*-	*-
!!!RWG1: This file contains only pitch and duration data.
!!!RWG2: Transposing instruments are not transposed.
!!!RWG3: Spines may have incompatible meters.
!!!RWG4: Durations of rests and tied notes may be interpreted.
!!!RWG: Key is interpreted using the Humdrum key tool.
!!!GTL: 6 Quators ("Jungfernquartette")
!!!OPT: The Bird
!!!AFT: stage1
!!!END: 1997/04/15
!!format changes:
!!content changes:
!!public access: complete
!!!KEY: 3668758075
!!!EMD: Converted from MuseData to Humdrum Dec 16, 2000, by Andreas Kornstaedt using muse2kern.
